24x24/panel/yd-ind-idle.svg

<svg xmlns="http://www.w3.org/2000/svg" width="24" height="24" version="1">
 <defs>
  <style id="current-color-scheme" type="text/css">
   .ColorScheme-Text { color:#323a41; } .ColorScheme-Highlight { color:#4285f4; } .ColorScheme-NeutralText { color:#ff9800; } .ColorScheme-PositiveText { color:#4caf50; } .ColorScheme-NegativeText { color:#f44336; }
  </style>
 </defs>
 <path style="fill:currentColor" class="ColorScheme-Text" d="M 11.091797 6.046875 C 7.5362406 6.046875 8.3634157 9.2950444 6.5429688 10.273438 C 6.4802247 10.309038 6.4449448 10.341828 6.3886719 10.376953 C 7.5892197 9.662364 9.0689797 9.0648862 10.640625 8.6601562 C 11.971533 8.3177782 13.321465 8.1256975 14.566406 8.1015625 C 14.598396 8.1014485 14.630309 8.1014485 14.662109 8.1015625 C 13.461529 7.7603968 13.330248 6.046875 11.091797 6.046875 z M 14.966797 9.0019531 C 13.721856 9.0260931 12.371924 9.2181679 11.041016 9.5605469 C 6.654542 10.689308 3.5283739 13.143896 4.0585938 15.042969 C 4.3641151 16.128172 5.8361631 16.844284 8.0292969 16.974609 C 8.0282969 16.966409 8.0262906 16.959382 8.0253906 16.951172 C 7.9070036 15.924416 8.5584696 15.031232 9.3222656 14.425781 C 10.086062 13.820328 11.068535 13.380696 12.171875 13.146484 C 13.275215 12.912273 14.30829 12.923593 15.171875 13.183594 C 15.983768 13.428032 16.747621 13.961398 16.935547 14.876953 C 19.133622 13.644619 20.27371 12.158785 19.943359 10.957031 C 19.593401 9.6988342 17.684801 8.9490281 14.966797 9.0019531 z M 13.662109 14 A 1.8585774 3.5769585 76.001371 0 0 12.285156 14.142578 A 1.8585774 3.5769585 76.001371 0 0 9.0058594 16.742188 A 1.8585774 3.5769585 76.001371 0 0 12.714844 17.857422 A 1.8585774 3.5769585 76.001371 0 0 15.992188 15.257812 A 1.8585774 3.5769585 76.001371 0 0 13.662109 14 z"/>
</svg>

<svg xmlns="http://www.w3.org/2000/svg" width="24" height="24" version="1"><defs><style id="current-color-scheme" type="text/css"></style></defs><path d="M11.092 6.047c-3.556 0-2.729 3.248-4.549 4.226-.063.036-.098.069-.154.104 1.2-.715 2.68-1.312 4.252-1.717a17.347 17.347 0 0 1 4.021-.558c-1.2-.342-1.332-2.055-3.57-2.055zm3.875 2.955a17.347 17.347 0 0 0-3.926.559c-4.386 1.128-7.513 3.583-6.982 5.482.305 1.085 1.777 1.801 3.97 1.932 0-.009-.003-.016-.004-.024-.118-1.027.533-1.92 1.297-2.525.764-.606 1.747-1.045 2.85-1.28 1.103-.234 2.136-.222 3 .038.812.244 1.576.777 1.764 1.693 2.198-1.232 3.338-2.718 3.007-3.92-.35-1.258-2.258-2.008-4.976-1.955zM13.662 14a1.859 3.577 76.001 0 0-1.377.143 1.859 3.577 76.001 0 0-3.28 2.6 1.859 3.577 76.001 0 0 3.71 1.114 1.859 3.577 76.001 0 0 3.277-2.6A1.859 3.577 76.001 0 0 13.662 14z" fill="currentColor" color="#d3dae3"/></svg>
